X:2566
L:1/8
M:4/4
K:Dmin
 (.A.A.A.D) (.E.G.A.=B) | (.c.d.A.G) (.F.E.D.^C) | (.D.d.c.d) (.e{g}.f.e.d) | c2 T=B2 A2 (.c.d) | 
 (.e.f.e.d) (.c.A.^G.A) | (.B.c.d.A) (.G.E.D.E) | .D2 (D/E/F) .C2 (Ec) | (.A.G{.F}.E>.D) D2 z2 :: 
 (.E.D.C.A,) (.C.D.E.G) | (.A.A.A.G) (.E.G.E.D) | (.C.d.B.c) (.A.d.c.d) | (.c.B.c.d) .e2 z .d | 
{de} (.d.c.A) z z2 z (.d | .e.A).A z z2 z D/E/ |({G} .F.E.F.G{F} .E.D.E.F | 
 .D)(^C/=B,/) (.C>.D) D2 :|

